; generated by Slic3r 0.9.9 on 2013-12-15 at 19:34:25

; layer_height = 0.3
; perimeters = 1
; top_solid_layers = 1
; bottom_solid_layers = 1
; fill_density = 0.3
; perimeter_speed = 26
; infill_speed = 50
; travel_speed = 200
; nozzle_diameter = 0.5
; filament_diameter = 1.75
; extrusion_multiplier = 1
; perimeters extrusion width = 0.70mm
; infill extrusion width = 0.50mm
; solid infill extrusion width = 0.70mm
; top infill extrusion width = 0.70mm

G21 ; set units to millimeters
M107
M92 E972
M140 S60 ; set bed tempearture
M104 S195 ; set temperature
M190 S60 ; wait for bed temperature to be reached
M109 S195 ; wait for temperature to be reached
G28 ; home all axes
G90 ; use absolute coordinates
M83 ; use relative distances for extrusion
G1 F18000.000 E-3.10000
G1 Z0.300 F12000.000
G1 X17.210 Y17.630
G1 F18000.000 E3.10000
G1 X17.630 Y17.210 F780.000 E0.04849
G1 X18.120 Y16.870 E0.04869
G1 X18.470 Y16.680 E0.03251
G1 X18.830 Y16.540 E0.03153
G1 X19.210 Y16.430 E0.03229
G1 X19.410 Y16.390 E0.01665
G1 X19.800 Y16.350 E0.03200
G1 X120.200 Y16.350 E8.19592
G1 X120.590 Y16.390 E0.03200
G1 X120.790 Y16.430 E0.01665
G1 X121.170 Y16.540 E0.03229
G1 X121.530 Y16.680 E0.03153
G1 X121.880 Y16.870 E0.03251
G1 X122.370 Y17.210 E0.04869
G1 X122.790 Y17.630 E0.04849
G1 X123.130 Y18.120 E0.04869
G1 X123.320 Y18.470 E0.03251
G1 X123.460 Y18.830 E0.03153
G1 X123.570 Y19.210 E0.03229
G1 X123.610 Y19.410 E0.01665
G1 X123.650 Y19.800 E0.03200
G1 X123.650 Y120.200 E8.19592
G1 X123.610 Y120.590 E0.03200
G1 X123.570 Y120.790 E0.01665
G1 X123.460 Y121.170 E0.03229
G1 X123.320 Y121.530 E0.03153
G1 X123.130 Y121.880 E0.03251
G1 X122.790 Y122.370 E0.04869
G1 X122.370 Y122.790 E0.04849
G1 X121.880 Y123.130 E0.04869
G1 X121.530 Y123.320 E0.03251
G1 X121.170 Y123.460 E0.03153
G1 X120.790 Y123.570 E0.03229
G1 X120.590 Y123.610 E0.01665
G1 X120.200 Y123.650 E0.03200
G1 X19.800 Y123.650 E8.19592
G1 X19.410 Y123.610 E0.03200
G1 X19.210 Y123.570 E0.01665
G1 X18.830 Y123.460 E0.03229
G1 X18.470 Y123.320 E0.03153
G1 X18.120 Y123.130 E0.03251
G1 X17.630 Y122.790 E0.04869
G1 X17.210 Y122.370 E0.04849
G1 X16.870 Y121.880 E0.04869
G1 X16.680 Y121.530 E0.03251
G1 X16.540 Y121.170 E0.03153
G1 X16.430 Y120.790 E0.03229
G1 X16.390 Y120.590 E0.01665
G1 X16.350 Y120.200 E0.03200
G1 X16.350 Y19.800 E8.19592
G1 X16.390 Y19.410 E0.03200
G1 X16.540 Y18.830 E0.04890
G1 X16.770 Y18.290 E0.04791
G1 X17.151 Y17.709 E0.05675
G1 F18000.000 E-3.10000
G1 X119.673 Y119.673 F12000.000
G1 F18000.000 E3.10000
G1 X20.327 Y119.673 F780.000 E8.10984
G1 X20.327 Y20.327 E8.10984
G1 X119.673 Y20.327 E8.10984
G1 X119.673 Y119.575 E8.10182
G1 F18000.000 E-3.10000
G1 X119.198 Y20.802 F12000.000
G1 F18000.000 E3.10000
G1 X119.198 Y21.730 F1200.000 E0.07600
G1 X118.270 Y20.802 E0.10748
G1 X117.342 Y20.802 E0.07600
G1 X119.198 Y22.658 E0.21496
G1 X119.198 Y23.587 E0.07600
G1 X116.413 Y20.802 E0.32243
G1 X115.485 Y20.802 E0.07600
G1 X119.198 Y24.515 E0.42990
G1 X119.198 Y25.443 E0.07600
G1 X114.557 Y20.802 E0.53738
G1 X113.629 Y20.802 E0.07600
G1 X119.198 Y26.371 E0.64485
G1 X119.198 Y27.300 E0.07600
G1 X112.700 Y20.802 E0.75233
G1 X111.772 Y20.802 E0.07600
G1 X119.198 Y28.228 E0.85980
G1 X119.198 Y29.156 E0.07600
G1 X110.844 Y20.802 E0.96727
G1 X109.916 Y20.802 E0.07600
G1 X119.198 Y30.084 E1.07475
G1 X119.198 Y31.013 E0.07600
G1 X108.987 Y20.802 E1.18222
G1 X108.059 Y20.802 E0.07600
G1 X119.198 Y31.941 E1.28970
G1 X119.198 Y32.869 E0.07600
G1 X107.131 Y20.802 E1.39717
G1 X106.203 Y20.802 E0.07600
G1 X119.198 Y33.797 E1.50464
G1 X119.198 Y34.726 E0.07600
G1 X105.274 Y20.802 E1.61212
G1 X104.346 Y20.802 E0.07600
G1 X119.198 Y35.654 E1.71959
G1 X119.198 Y36.582 E0.07600
G1 X103.418 Y20.802 E1.82707
G1 X102.489 Y20.802 E0.07600
G1 X119.198 Y37.511 E1.93454
G1 X119.198 Y38.439 E0.07600
G1 X101.561 Y20.802 E2.04201
G1 X100.633 Y20.802 E0.07600
G1 X119.198 Y39.367 E2.14949
G1 X119.198 Y40.295 E0.07600
G1 X99.705 Y20.802 E2.25696
G1 X98.776 Y20.802 E0.07600
G1 X119.198 Y41.224 E2.36444
G1 X119.198 Y42.152 E0.07600
G1 X97.848 Y20.802 E2.47191
G1 X96.920 Y20.802 E0.07600
G1 X119.198 Y43.080 E2.57938
G1 X119.198 Y44.008 E0.07600
G1 X95.992 Y20.802 E2.68686
G1 X95.063 Y20.802 E0.07600
G1 X119.198 Y44.937 E2.79433
G1 X119.198 Y45.865 E0.07600
G1 X94.135 Y20.802 E2.90181
G1 X93.207 Y20.802 E0.07600
G1 X119.198 Y46.793 E3.00928
G1 X119.198 Y47.722 E0.07600
G1 X92.278 Y20.802 E3.11675
G1 X91.350 Y20.802 E0.07600
G1 X119.198 Y48.650 E3.22423
G1 X119.198 Y49.578 E0.07600
G1 X90.422 Y20.802 E3.33170
G1 X89.494 Y20.802 E0.07600
G1 X119.198 Y50.506 E3.43918
G1 X119.198 Y51.435 E0.07600
G1 X88.565 Y20.802 E3.54665
G1 X87.637 Y20.802 E0.07600
G1 X119.198 Y52.363 E3.65412
G1 X119.198 Y53.291 E0.07600
G1 X86.709 Y20.802 E3.76160
G1 X85.781 Y20.802 E0.07600
G1 X119.198 Y54.219 E3.86907
G1 X119.198 Y55.148 E0.07600
G1 X84.852 Y20.802 E3.97655
G1 X83.924 Y20.802 E0.07600
G1 X119.198 Y56.076 E4.08402
G1 X119.198 Y57.004 E0.07600
G1 X82.996 Y20.802 E4.19149
G1 X82.068 Y20.802 E0.07600
G1 X119.198 Y57.932 E4.29897
G1 X119.198 Y58.861 E0.07600
G1 X81.139 Y20.802 E4.40644
G1 X80.211 Y20.802 E0.07600
G1 X119.198 Y59.789 E4.51392
G1 X119.198 Y60.717 E0.07600
G1 X79.283 Y20.802 E4.62139
G1 X78.354 Y20.802 E0.07600
G1 X119.198 Y61.646 E4.72887
G1 X119.198 Y62.574 E0.07600
G1 X77.426 Y20.802 E4.83634
G1 X76.498 Y20.802 E0.07600
G1 X119.198 Y63.502 E4.94381
G1 X119.198 Y64.430 E0.07600
G1 X75.570 Y20.802 E5.05129
G1 X74.641 Y20.802 E0.07600
G1 X119.198 Y65.359 E5.15876
G1 X119.198 Y66.287 E0.07600
G1 X73.713 Y20.802 E5.26624
G1 X72.785 Y20.802 E0.07600
G1 X119.198 Y67.215 E5.37371
G1 X119.198 Y68.143 E0.07600
G1 X71.857 Y20.802 E5.48118
G1 X70.928 Y20.802 E0.07600
G1 X119.198 Y69.072 E5.58866
G1 X119.198 Y70.000 E0.07600
G1 X70.000 Y20.802 E5.69613
G1 X69.072 Y20.802 E0.07600
G1 X119.198 Y70.928 E5.80361
G1 X119.198 Y71.857 E0.07600
G1 X68.143 Y20.802 E5.91108
G1 X67.215 Y20.802 E0.07600
G1 X119.198 Y72.785 E6.01855
G1 X119.198 Y73.713 E0.07600
G1 X66.287 Y20.802 E6.12603
G1 X65.359 Y20.802 E0.07600
G1 X119.198 Y74.641 E6.23350
G1 X119.198 Y75.570 E0.07600
G1 X64.430 Y20.802 E6.34098
G1 X63.502 Y20.802 E0.07600
G1 X119.198 Y76.498 E6.44845
G1 X119.198 Y77.426 E0.07600
G1 X62.574 Y20.802 E6.55592
G1 X61.646 Y20.802 E0.07600
G1 X119.198 Y78.354 E6.66340
G1 X119.198 Y79.283 E0.07600
G1 X60.717 Y20.802 E6.77087
G1 X59.789 Y20.802 E0.07600
G1 X119.198 Y80.211 E6.87835
G1 X119.198 Y81.139 E0.07600
G1 X58.861 Y20.802 E6.98582
G1 X57.932 Y20.802 E0.07600
G1 X119.198 Y82.067 E7.09329
G1 X119.198 Y82.996 E0.07600
G1 X57.004 Y20.802 E7.20077
G1 X56.076 Y20.802 E0.07600
G1 X119.198 Y83.924 E7.30824
G1 X119.198 Y84.852 E0.07600
G1 X55.148 Y20.802 E7.41572
G1 X54.219 Y20.802 E0.07600
G1 X119.198 Y85.781 E7.52319
G1 X119.198 Y86.709 E0.07600
G1 X53.291 Y20.802 E7.63066
G1 X52.363 Y20.802 E0.07600
G1 X119.198 Y87.637 E7.73814
G1 X119.198 Y88.565 E0.07600
G1 X51.435 Y20.802 E7.84561
G1 X50.506 Y20.802 E0.07600
G1 X119.198 Y89.494 E7.95309
G1 X119.198 Y90.422 E0.07600
G1 X49.578 Y20.802 E8.06056
G1 X48.650 Y20.802 E0.07600
G1 X119.198 Y91.350 E8.16803
G1 X119.198 Y92.278 E0.07600
G1 X47.722 Y20.802 E8.27551
G1 X46.793 Y20.802 E0.07600
G1 X119.198 Y93.207 E8.38298
G1 X119.198 Y94.135 E0.07600
G1 X45.865 Y20.802 E8.49046
G1 X44.937 Y20.802 E0.07600
G1 X119.198 Y95.063 E8.59793
G1 X119.198 Y95.992 E0.07600
G1 X44.008 Y20.802 E8.70540
G1 X43.080 Y20.802 E0.07600
G1 X119.198 Y96.920 E8.81288
G1 X119.198 Y97.848 E0.07600
G1 X42.152 Y20.802 E8.92035
G1 X41.224 Y20.802 E0.07600
G1 X119.198 Y98.776 E9.02783
G1 X119.198 Y99.705 E0.07600
G1 X40.295 Y20.802 E9.13530
G1 X39.367 Y20.802 E0.07600
G1 X119.198 Y100.633 E9.24278
G1 X119.198 Y101.561 E0.07600
G1 X38.439 Y20.802 E9.35025
G1 X37.511 Y20.802 E0.07600
G1 X119.198 Y102.489 E9.45772
G1 X119.198 Y103.418 E0.07600
G1 X36.582 Y20.802 E9.56520
G1 X35.654 Y20.802 E0.07600
G1 X119.198 Y104.346 E9.67267
G1 X119.198 Y105.274 E0.07600
G1 X34.726 Y20.802 E9.78015
G1 X33.797 Y20.802 E0.07600
G1 X119.198 Y106.203 E9.88762
G1 X119.198 Y107.131 E0.07600
G1 X32.869 Y20.802 E9.99509
G1 X31.941 Y20.802 E0.07600
G1 X119.198 Y108.059 E10.10257
G1 X119.198 Y108.987 E0.07600
G1 X31.013 Y20.802 E10.21004
G1 X30.084 Y20.802 E0.07600
G1 X119.198 Y109.916 E10.31752
G1 X119.198 Y110.844 E0.07600
G1 X29.156 Y20.802 E10.42499
G1 X28.228 Y20.802 E0.07600
G1 X119.198 Y111.772 E10.53246
G1 X119.198 Y112.700 E0.07600
G1 X27.300 Y20.802 E10.63994
G1 X26.371 Y20.802 E0.07600
G1 X119.198 Y113.629 E10.74741
G1 X119.198 Y114.557 E0.07600
G1 X25.443 Y20.802 E10.85489
G1 X24.515 Y20.802 E0.07600
G1 X119.198 Y115.485 E10.96236
G1 X119.198 Y116.413 E0.07600
G1 X23.587 Y20.802 E11.06983
G1 X22.658 Y20.802 E0.07600
G1 X119.198 Y117.342 E11.17731
G1 X119.198 Y118.270 E0.07600
G1 X21.730 Y20.802 E11.28478
G1 X20.802 Y20.802 E0.07599
G1 X119.198 Y119.198 E11.39224
G1 X118.270 Y119.198 E0.07598
G1 X20.802 Y21.730 E11.28480
G1 X20.802 Y22.658 E0.07600
G1 X117.342 Y119.198 E11.17732
G1 X116.414 Y119.198 E0.07600
G1 X20.802 Y23.586 E11.06985
G1 X20.802 Y24.515 E0.07600
G1 X115.485 Y119.198 E10.96238
G1 X114.557 Y119.198 E0.07600
G1 X20.802 Y25.443 E10.85490
G1 X20.802 Y26.371 E0.07600
G1 X113.629 Y119.198 E10.74743
G1 X112.701 Y119.198 E0.07600
G1 X20.802 Y27.299 E10.63995
G1 X20.802 Y28.228 E0.07600
G1 X111.772 Y119.198 E10.53248
G1 X110.844 Y119.198 E0.07600
G1 X20.802 Y29.156 E10.42501
G1 X20.802 Y30.084 E0.07600
G1 X109.916 Y119.198 E10.31753
G1 X108.987 Y119.198 E0.07600
G1 X20.802 Y31.013 E10.21006
G1 X20.802 Y31.941 E0.07600
G1 X108.059 Y119.198 E10.10258
G1 X107.131 Y119.198 E0.07600
G1 X20.802 Y32.869 E9.99511
G1 X20.802 Y33.797 E0.07600
G1 X106.203 Y119.198 E9.88764
G1 X105.274 Y119.198 E0.07600
G1 X20.802 Y34.726 E9.78016
G1 X20.802 Y35.654 E0.07600
G1 X104.346 Y119.198 E9.67269
G1 X103.418 Y119.198 E0.07600
G1 X20.802 Y36.582 E9.56521
G1 X20.802 Y37.510 E0.07600
G1 X102.490 Y119.198 E9.45774
G1 X101.561 Y119.198 E0.07600
G1 X20.802 Y38.439 E9.35027
G1 X20.802 Y39.367 E0.07600
G1 X100.633 Y119.198 E9.24279
G1 X99.705 Y119.198 E0.07600
G1 X20.802 Y40.295 E9.13532
G1 X20.802 Y41.224 E0.07600
G1 X98.776 Y119.198 E9.02784
G1 X97.848 Y119.198 E0.07600
G1 X20.802 Y42.152 E8.92037
G1 X20.802 Y43.080 E0.07600
G1 X96.920 Y119.198 E8.81289
G1 X95.992 Y119.198 E0.07600
G1 X20.802 Y44.008 E8.70542
G1 X20.802 Y44.937 E0.07600
G1 X95.063 Y119.198 E8.59795
G1 X94.135 Y119.198 E0.07600
G1 X20.802 Y45.865 E8.49047
G1 X20.802 Y46.793 E0.07600
G1 X93.207 Y119.198 E8.38300
G1 X92.279 Y119.198 E0.07600
G1 X20.802 Y47.721 E8.27552
G1 X20.802 Y48.650 E0.07600
G1 X91.350 Y119.198 E8.16805
G1 X90.422 Y119.198 E0.07600
G1 X20.802 Y49.578 E8.06058
G1 X20.802 Y50.506 E0.07600
G1 X89.494 Y119.198 E7.95310
G1 X88.566 Y119.198 E0.07600
G1 X20.802 Y51.434 E7.84563
G1 X20.802 Y52.363 E0.07600
G1 X87.637 Y119.198 E7.73815
G1 X86.709 Y119.198 E0.07600
G1 X20.802 Y53.291 E7.63068
G1 X20.802 Y54.219 E0.07600
G1 X85.781 Y119.198 E7.52321
G1 X84.852 Y119.198 E0.07600
G1 X20.802 Y55.148 E7.41573
G1 X20.802 Y56.076 E0.07600
G1 X83.924 Y119.198 E7.30826
G1 X82.996 Y119.198 E0.07600
G1 X20.802 Y57.004 E7.20078
G1 X20.802 Y57.932 E0.07600
G1 X82.068 Y119.198 E7.09331
G1 X81.139 Y119.198 E0.07600
G1 X20.802 Y58.861 E6.98584
G1 X20.802 Y59.789 E0.07600
G1 X80.211 Y119.198 E6.87836
G1 X79.283 Y119.198 E0.07600
G1 X20.802 Y60.717 E6.77089
G1 X20.802 Y61.645 E0.07600
G1 X78.355 Y119.198 E6.66341
G1 X77.426 Y119.198 E0.07600
G1 X20.802 Y62.574 E6.55594
G1 X20.802 Y63.502 E0.07600
G1 X76.498 Y119.198 E6.44847
G1 X75.570 Y119.198 E0.07600
G1 X20.802 Y64.430 E6.34099
G1 X20.802 Y65.359 E0.07600
G1 X74.641 Y119.198 E6.23352
G1 X73.713 Y119.198 E0.07600
G1 X20.802 Y66.287 E6.12604
G1 X20.802 Y67.215 E0.07600
G1 X72.785 Y119.198 E6.01857
G1 X71.857 Y119.198 E0.07600
G1 X20.802 Y68.143 E5.91110
G1 X20.802 Y69.072 E0.07600
G1 X70.928 Y119.198 E5.80362
G1 X70.000 Y119.198 E0.07600
G1 X20.802 Y70.000 E5.69615
G1 X20.802 Y70.928 E0.07600
G1 X69.072 Y119.198 E5.58867
G1 X68.144 Y119.198 E0.07600
G1 X20.802 Y71.856 E5.48120
G1 X20.802 Y72.785 E0.07600
G1 X67.215 Y119.198 E5.37373
G1 X66.287 Y119.198 E0.07600
G1 X20.802 Y73.713 E5.26625
G1 X20.802 Y74.641 E0.07600
G1 X65.359 Y119.198 E5.15878
G1 X64.431 Y119.198 E0.07600
G1 X20.802 Y75.569 E5.05130
G1 X20.802 Y76.498 E0.07600
G1 X63.502 Y119.198 E4.94383
G1 X62.574 Y119.198 E0.07600
G1 X20.802 Y77.426 E4.83636
G1 X20.802 Y78.354 E0.07600
G1 X61.646 Y119.198 E4.72888
G1 X60.717 Y119.198 E0.07600
G1 X20.802 Y79.283 E4.62141
G1 X20.802 Y80.211 E0.07600
G1 X59.789 Y119.198 E4.51393
G1 X58.861 Y119.198 E0.07600
G1 X20.802 Y81.139 E4.40646
G1 X20.802 Y82.067 E0.07600
G1 X57.933 Y119.198 E4.29899
G1 X57.004 Y119.198 E0.07600
G1 X20.802 Y82.996 E4.19151
G1 X20.802 Y83.924 E0.07600
G1 X56.076 Y119.198 E4.08404
G1 X55.148 Y119.198 E0.07600
G1 X20.802 Y84.852 E3.97656
G1 X20.802 Y85.780 E0.07600
G1 X54.220 Y119.198 E3.86909
G1 X53.291 Y119.198 E0.07600
G1 X20.802 Y86.709 E3.76161
G1 X20.802 Y87.637 E0.07600
G1 X52.363 Y119.198 E3.65414
G1 X51.435 Y119.198 E0.07600
G1 X20.802 Y88.565 E3.54667
G1 X20.802 Y89.494 E0.07600
G1 X50.506 Y119.198 E3.43919
G1 X49.578 Y119.198 E0.07600
G1 X20.802 Y90.422 E3.33172
G1 X20.802 Y91.350 E0.07600
G1 X48.650 Y119.198 E3.22424
G1 X47.722 Y119.198 E0.07600
G1 X20.802 Y92.278 E3.11677
G1 X20.802 Y93.207 E0.07600
G1 X46.793 Y119.198 E3.00930
G1 X45.865 Y119.198 E0.07600
G1 X20.802 Y94.135 E2.90182
G1 X20.802 Y95.063 E0.07600
G1 X44.937 Y119.198 E2.79435
G1 X44.009 Y119.198 E0.07600
G1 X20.802 Y95.991 E2.68687
G1 X20.802 Y96.920 E0.07600
G1 X43.080 Y119.198 E2.57940
G1 X42.152 Y119.198 E0.07600
G1 X20.802 Y97.848 E2.47193
G1 X20.802 Y98.776 E0.07600
G1 X41.224 Y119.198 E2.36445
G1 X40.296 Y119.198 E0.07600
G1 X20.802 Y99.704 E2.25698
G1 X20.802 Y100.633 E0.07600
G1 X39.367 Y119.198 E2.14950
G1 X38.439 Y119.198 E0.07600
G1 X20.802 Y101.561 E2.04203
G1 X20.802 Y102.489 E0.07600
G1 X37.511 Y119.198 E1.93456
G1 X36.582 Y119.198 E0.07600
G1 X20.802 Y103.418 E1.82708
G1 X20.802 Y104.346 E0.07600
G1 X35.654 Y119.198 E1.71961
G1 X34.726 Y119.198 E0.07600
G1 X20.802 Y105.274 E1.61213
G1 X20.802 Y106.202 E0.07600
G1 X33.798 Y119.198 E1.50466
G1 X32.869 Y119.198 E0.07600
G1 X20.802 Y107.131 E1.39719
G1 X20.802 Y108.059 E0.07600
G1 X31.941 Y119.198 E1.28971
G1 X31.013 Y119.198 E0.07600
G1 X20.802 Y108.987 E1.18224
G1 X20.802 Y109.915 E0.07600
G1 X30.085 Y119.198 E1.07476
G1 X29.156 Y119.198 E0.07600
G1 X20.802 Y110.844 E0.96729
G1 X20.802 Y111.772 E0.07600
G1 X28.228 Y119.198 E0.85982
G1 X27.300 Y119.198 E0.07600
G1 X20.802 Y112.700 E0.75234
G1 X20.802 Y113.629 E0.07600
G1 X26.371 Y119.198 E0.64487
G1 X25.443 Y119.198 E0.07600
G1 X20.802 Y114.557 E0.53739
G1 X20.802 Y115.485 E0.07600
G1 X24.515 Y119.198 E0.42992
G1 X23.587 Y119.198 E0.07600
G1 X20.802 Y116.413 E0.32245
G1 X20.802 Y117.342 E0.07600
G1 X22.658 Y119.198 E0.21497
G1 X21.730 Y119.198 E0.07600
G1 X20.802 Y118.270 E0.10750
G1 X20.802 Y119.198 E0.07601
G1 F18000.000 E-3.10000
G1 Z0.600 F12000.000
G1 X20.327 Y119.673
G1 F18000.000 E3.10000
G1 X20.327 Y20.327 F1560.000 E8.10984
G1 X119.673 Y20.327 E8.10984
G1 X119.673 Y119.673 E8.10984
G1 X20.425 Y119.673 E8.10182
G1 X22.302 Y119.198 F12000.000
G1 X21.861 Y118.757 F3000.000 E0.03892
G1 X20.802 Y119.041 E0.06840
G1 X20.802 Y118.523 E0.03228
G1 X21.732 Y118.274 E0.06005
G1 X22.080 Y116.973 E0.08401
G1 X24.218 Y116.400 E0.13802
G1 X25.171 Y117.353 E0.08401
G1 X27.309 Y116.780 E0.13802
G1 X27.657 Y115.478 E0.08401
G1 X29.795 Y114.906 E0.13802
G1 X30.748 Y115.858 E0.08401
G1 X32.885 Y115.285 E0.13802
G1 X33.234 Y113.984 E0.08401
G1 X35.372 Y113.411 E0.13802
G1 X36.324 Y114.364 E0.08401
G1 X38.462 Y113.791 E0.13802
G1 X38.811 Y112.490 E0.08401
G1 X40.949 Y111.917 E0.13802
G1 X41.901 Y112.870 E0.08401
G1 X44.039 Y112.297 E0.13802
G1 X44.388 Y110.996 E0.08401
G1 X46.525 Y110.423 E0.13802
G1 X47.478 Y111.375 E0.08401
G1 X49.616 Y110.803 E0.13802
G1 X49.964 Y109.501 E0.08401
G1 X52.102 Y108.928 E0.13802
G1 X53.055 Y109.881 E0.08401
G1 X55.192 Y109.308 E0.13802
G1 X55.541 Y108.007 E0.08401
G1 X57.679 Y107.434 E0.13802
