; generated by Slic3r 0.9.9 on 2013-12-15 at 20:32:11

; layer_height = 0.3
; perimeters = 1
; top_solid_layers = 0
; bottom_solid_layers = 0
; fill_density = 0.3
; perimeter_speed = 26
; infill_speed = 50
; travel_speed = 200
; nozzle_diameter = 0.5
; filament_diameter = 1.75
; extrusion_multiplier = 1
; perimeters extrusion width = 0.70mm
; infill extrusion width = 0.50mm
; solid infill extrusion width = 0.70mm
; top infill extrusion width = 0.70mm

G21 ; set units to millimeters
M107
M92 E972
M140 S60 ; set bed tempearture
M104 S195 ; set temperature
M190 S60 ; wait for bed temperature to be reached
M109 S195 ; wait for temperature to be reached
G28 ; home all axes
G90 ; use absolute coordinates
M83 ; use relative distances for extrusion
G1 F18000.000 E-3.10000
G1 Z0.300 F12000.000
G1 X17.210 Y17.630
G1 F18000.000 E3.10000
G1 X17.630 Y17.210 F780.000 E0.04849
G1 X18.120 Y16.870 E0.04869
G1 X18.470 Y16.680 E0.03251
G1 X18.830 Y16.540 E0.03153
G1 X19.210 Y16.430 E0.03229
G1 X19.410 Y16.390 E0.01665
G1 X19.800 Y16.350 E0.03200
G1 X120.200 Y16.350 E8.19592
G1 X120.590 Y16.390 E0.03200
G1 X120.790 Y16.430 E0.01665
G1 X121.170 Y16.540 E0.03229
G1 X121.530 Y16.680 E0.03153
G1 X121.880 Y16.870 E0.03251
G1 X122.370 Y17.210 E0.04869
G1 X122.790 Y17.630 E0.04849
G1 X123.130 Y18.120 E0.04869
G1 X123.320 Y18.470 E0.03251
G1 X123.460 Y18.830 E0.03153
G1 X123.570 Y19.210 E0.03229
G1 X123.610 Y19.410 E0.01665
G1 X123.650 Y19.800 E0.03200
G1 X123.650 Y120.200 E8.19592
G1 X123.610 Y120.590 E0.03200
G1 X123.570 Y120.790 E0.01665
G1 X123.460 Y121.170 E0.03229
G1 X123.320 Y121.530 E0.03153
G1 X123.130 Y121.880 E0.03251
G1 X122.790 Y122.370 E0.04869
G1 X122.370 Y122.790 E0.04849
G1 X121.880 Y123.130 E0.04869
G1 X121.530 Y123.320 E0.03251
G1 X121.170 Y123.460 E0.03153
G1 X120.790 Y123.570 E0.03229
G1 X120.590 Y123.610 E0.01665
G1 X120.200 Y123.650 E0.03200
G1 X19.800 Y123.650 E8.19592
G1 X19.410 Y123.610 E0.03200
G1 X19.210 Y123.570 E0.01665
G1 X18.830 Y123.460 E0.03229
G1 X18.470 Y123.320 E0.03153
G1 X18.120 Y123.130 E0.03251
G1 X17.630 Y122.790 E0.04869
G1 X17.210 Y122.370 E0.04849
G1 X16.870 Y121.880 E0.04869
G1 X16.680 Y121.530 E0.03251
G1 X16.540 Y121.170 E0.03153
G1 X16.430 Y120.790 E0.03229
G1 X16.390 Y120.590 E0.01665
G1 X16.350 Y120.200 E0.03200
G1 X16.350 Y19.800 E8.19592
G1 X16.390 Y19.410 E0.03200
G1 X16.540 Y18.830 E0.04890
G1 X16.770 Y18.290 E0.04791
G1 X17.151 Y17.709 E0.05675
G1 F18000.000 E-3.10000
G1 X20.327 Y119.673 F12000.000
G1 F18000.000 E3.10000
G1 X20.327 Y20.327 F780.000 E8.10984
G1 X119.673 Y20.327 E8.10984
G1 X119.673 Y119.673 E8.10984
G1 X20.425 Y119.673 E8.10182
G1 X20.802 Y119.198 F12000.000
G1 X20.802 Y118.782 F1500.000 E0.02596
G1 X21.378 Y118.628 E0.03722
G1 X21.949 Y119.198 E0.05033
G1 X22.656 Y119.198 F12000.000
G1 X21.732 Y118.274 F1500.000 E0.08151
G1 X22.080 Y116.973 E0.08401
G1 X20.802 Y115.694 E0.11278
G1 X20.802 Y113.337 E0.14699
G1 X21.218 Y113.753 E0.03669
G1 X20.869 Y115.054 E0.08401
G1 X22.434 Y116.619 E0.13802
G1 X23.735 Y116.271 E0.08401
G1 X25.300 Y117.835 E0.13802
G1 X24.952 Y119.137 E0.08401
G1 X25.013 Y119.198 E0.00543
G1 F18000.000 E-3.10000
G1 X28.386 Y119.198 F12000.000
G1 F18000.000 E3.10000
G1 X28.520 Y118.698 F1500.000 E0.03228
G1 X26.955 Y117.133 E0.13802
G1 X25.654 Y117.482 E0.08401
G1 X24.089 Y115.917 E0.13802
G1 X24.437 Y114.616 E0.08401
G1 X22.873 Y113.051 E0.13802
G1 X21.571 Y113.399 E0.08401
G1 X20.802 Y112.630 E0.06787
G1 X20.802 Y110.155 E0.15436
G1 X22.010 Y109.831 E0.07800
G1 X23.575 Y111.396 E0.13802
G1 X23.226 Y112.697 E0.08401
G1 X24.791 Y114.262 E0.13802
G1 X26.092 Y113.914 E0.08401
G1 X27.657 Y115.478 E0.13802
G1 X27.309 Y116.780 E0.08401
G1 X28.874 Y118.345 E0.13802
G1 X30.175 Y117.996 E0.08401
G1 X31.377 Y119.198 E0.10603
G1 X32.084 Y119.198 F12000.000
G1 X30.528 Y117.642 F1500.000 E0.13721
G1 X30.877 Y116.341 E0.08401
G1 X29.312 Y114.776 E0.13802
G1 X28.011 Y115.125 E0.08401
G1 X26.446 Y113.560 E0.13802
G1 X26.795 Y112.259 E0.08401
G1 X25.230 Y110.694 E0.13802
G1 X23.928 Y111.042 E0.08401
G1 X22.363 Y109.477 E0.13802
G1 X22.712 Y108.176 E0.08401
G1 X21.147 Y106.611 E0.13802
G1 X20.802 Y106.704 E0.02230
G1 X20.802 Y103.909 E0.17430
G1 X21.849 Y104.956 E0.09239
G1 X21.501 Y106.258 E0.08401
G1 X23.066 Y107.823 E0.13802
G1 X24.367 Y107.474 E0.08401
G1 X25.932 Y109.039 E0.13802
G1 X25.583 Y110.340 E0.08401
G1 X27.148 Y111.905 E0.13802
G1 X28.449 Y111.556 E0.08401
G1 X30.014 Y113.121 E0.13802
G1 X29.666 Y114.423 E0.08401
G1 X31.231 Y115.988 E0.13802
G1 X32.532 Y115.639 E0.08401
G1 X34.097 Y117.204 E0.13802
G1 X33.748 Y118.505 E0.08401
G1 X34.441 Y119.198 E0.06113
G1 X33.734 Y119.198 E0.04410
G1 X33.395 Y118.859 E0.02994
G1 X32.127 Y119.198 E0.08181
G1 F18000.000 E-3.10000
G1 X37.013 Y119.198 F12000.000
G1 F18000.000 E3.10000
G1 X37.317 Y118.067 F1500.000 E0.07306
G1 X35.752 Y116.502 E0.13802
G1 X34.450 Y116.850 E0.08401
G1 X32.885 Y115.285 E0.13802
G1 X33.234 Y113.984 E0.08401
G1 X31.669 Y112.419 E0.13802
G1 X30.368 Y112.768 E0.08401
G1 X28.803 Y111.203 E0.13802
G1 X29.152 Y109.902 E0.08401
G1 X27.587 Y108.337 E0.13802
G1 X26.285 Y108.685 E0.08401
G1 X24.720 Y107.120 E0.13802
G1 X25.069 Y105.819 E0.08401
G1 X23.504 Y104.254 E0.13802
G1 X22.203 Y104.603 E0.08401
G1 X20.802 Y103.202 E0.12357
G1 X20.802 Y102.426 E0.04835
G1 X20.987 Y101.737 E0.04453
G1 X20.802 Y101.552 E0.01630
G1 X20.802 Y100.845 E0.04410
G1 X21.340 Y101.383 E0.04748
G1 X22.641 Y101.034 E0.08401
G1 X24.206 Y102.599 E0.13802
G1 X23.858 Y103.901 E0.08401
G1 X25.423 Y105.466 E0.13802
G1 X26.724 Y105.117 E0.08401
G1 X28.289 Y106.682 E0.13802
G1 X27.940 Y107.983 E0.08401
G1 X29.505 Y109.548 E0.13802
G1 X30.806 Y109.199 E0.08401
G1 X32.371 Y110.764 E0.13802
G1 X32.023 Y112.066 E0.08401
G1 X33.588 Y113.631 E0.13802
G1 X34.889 Y113.282 E0.08401
G1 X36.454 Y114.847 E0.13802
G1 X36.105 Y116.148 E0.08401
G1 X37.670 Y117.713 E0.13802
G1 X38.971 Y117.364 E0.08401
G1 X40.536 Y118.929 E0.13802
G1 X40.464 Y119.198 E0.01736
G1 F18000.000 E-3.10000
G1 X43.162 Y119.198 F12000.000
G1 F18000.000 E3.10000
G1 X42.191 Y118.227 F1500.000 E0.08564
G1 X40.890 Y118.576 E0.08401
G1 X39.325 Y117.011 E0.13802
G1 X39.674 Y115.710 E0.08401
G1 X38.109 Y114.145 E0.13802
G1 X36.807 Y114.493 E0.08401
G1 X35.242 Y112.928 E0.13802
G1 X35.591 Y111.627 E0.08401
G1 X34.026 Y110.062 E0.13802
G1 X32.725 Y110.411 E0.08401
G1 X31.160 Y108.846 E0.13802
G1 X31.509 Y107.545 E0.08401
G1 X29.944 Y105.980 E0.13802
G1 X28.642 Y106.328 E0.08401
G1 X27.077 Y104.763 E0.13802
G1 X27.426 Y103.462 E0.08401
G1 X25.861 Y101.897 E0.13802
G1 X24.560 Y102.246 E0.08401
G1 X22.995 Y100.681 E0.13802
G1 X23.344 Y99.380 E0.08401
G1 X21.779 Y97.815 E0.13802
G1 X20.802 Y98.077 E0.06307
G1 X20.802 Y94.626 E0.21521
G1 X20.916 Y94.595 E0.00737
G1 X22.481 Y96.160 E0.13802
G1 X22.132 Y97.461 E0.08401
G1 X23.697 Y99.026 E0.13802
G1 X24.998 Y98.677 E0.08401
G1 X26.563 Y100.242 E0.13802
G1 X26.215 Y101.544 E0.08401
G1 X27.780 Y103.109 E0.13802
G1 X29.081 Y102.760 E0.08401
G1 X30.646 Y104.325 E0.13802
G1 X30.297 Y105.626 E0.08401
G1 X31.862 Y107.191 E0.13802
G1 X33.163 Y106.842 E0.08401
G1 X34.728 Y108.407 E0.13802
G1 X34.380 Y109.709 E0.08401
G1 X35.945 Y111.274 E0.13802
G1 X37.246 Y110.925 E0.08401
G1 X38.811 Y112.490 E0.13802
G1 X38.462 Y113.791 E0.08401
G1 X40.027 Y115.356 E0.13802
G1 X41.328 Y115.007 E0.08401
G1 X42.893 Y116.572 E0.13802
G1 X42.545 Y117.874 E0.08401
G1 X43.869 Y119.198 E0.11683
G1 X45.006 Y119.198 F12000.000
G1 X45.411 Y119.090 F1500.000 E0.02611
G1 X45.519 Y119.198 E0.00956
G1 X46.226 Y119.198 F12000.000
G1 X45.764 Y118.736 F1500.000 E0.04074
G1 X46.113 Y117.435 E0.08401
G1 X44.548 Y115.870 E0.13802
G1 X43.247 Y116.219 E0.08401
G1 X41.682 Y114.654 E0.13802
G1 X42.031 Y113.353 E0.08401
G1 X40.466 Y111.788 E0.13802
G1 X39.164 Y112.136 E0.08401
G1 X37.599 Y110.571 E0.13802
G1 X37.948 Y109.270 E0.08401
G1 X36.383 Y107.705 E0.13802
G1 X35.082 Y108.054 E0.08401
G1 X33.517 Y106.489 E0.13802
G1 X33.866 Y105.188 E0.08401
G1 X32.301 Y103.623 E0.13802
G1 X30.999 Y103.971 E0.08401
G1 X29.434 Y102.406 E0.13802
G1 X29.783 Y101.105 E0.08401
G1 X28.218 Y99.540 E0.13802
G1 X26.917 Y99.889 E0.08401
G1 X25.352 Y98.324 E0.13802
G1 X25.701 Y97.023 E0.08401
G1 X24.136 Y95.458 E0.13802
G1 X22.834 Y95.806 E0.08401
G1 X21.269 Y94.241 E0.13802
G1 X21.618 Y92.940 E0.08401
G1 X20.802 Y92.124 E0.07200
G1 X20.802 Y91.417 E0.04410
G1 X21.972 Y92.587 E0.10318
G1 X23.273 Y92.238 E0.08401
G1 X24.838 Y93.803 E0.13802
G1 X24.489 Y95.104 E0.08401
G1 X26.054 Y96.669 E0.13802
G1 X27.355 Y96.320 E0.08401
G1 X28.920 Y97.885 E0.13802
G1 X28.572 Y99.187 E0.08401
G1 X30.137 Y100.752 E0.13802
G1 X31.438 Y100.403 E0.08401
G1 X33.003 Y101.968 E0.13802
G1 X32.654 Y103.269 E0.08401
G1 X34.219 Y104.834 E0.13802
G1 X35.520 Y104.485 E0.08401
G1 X37.085 Y106.050 E0.13802
G1 X36.737 Y107.352 E0.08401
G1 X38.302 Y108.917 E0.13802
G1 X39.603 Y108.568 E0.08401
G1 X41.168 Y110.133 E0.13802
G1 X40.819 Y111.434 E0.08401
G1 X42.384 Y112.999 E0.13802
G1 X43.685 Y112.650 E0.08401
G1 X45.250 Y114.215 E0.13802
G1 X44.902 Y115.517 E0.08401
G1 X46.467 Y117.082 E0.13802
G1 X47.768 Y116.733 E0.08401
G1 X49.333 Y118.298 E0.13802
G1 X49.092 Y119.198 E0.05813
G1 F18000.000 E-3.10000
G1 X52.542 Y119.198 F12000.000
G1 F18000.000 E3.10000
G1 X52.553 Y119.161 F1500.000 E0.00243
G1 X50.988 Y117.596 E0.13802
G1 X49.686 Y117.944 E0.08401
G1 X48.121 Y116.379 E0.13802
G1 X48.470 Y115.078 E0.08401
G1 X46.905 Y113.513 E0.13802
G1 X45.604 Y113.862 E0.08401
G1 X44.039 Y112.297 E0.13802
G1 X44.388 Y110.996 E0.08401
G1 X42.823 Y109.431 E0.13802
G1 X41.521 Y109.779 E0.08401
G1 X39.956 Y108.214 E0.13802
G1 X40.305 Y106.913 E0.08401
G1 X38.740 Y105.348 E0.13802
G1 X37.439 Y105.697 E0.08401
G1 X35.874 Y104.132 E0.13802
G1 X36.223 Y102.831 E0.08401
G1 X34.658 Y101.266 E0.13802
G1 X33.356 Y101.614 E0.08401
G1 X31.791 Y100.049 E0.13802
G1 X32.140 Y98.748 E0.08401
G1 X30.575 Y97.183 E0.13802
G1 X29.274 Y97.532 E0.08401
G1 X27.709 Y95.967 E0.13802
G1 X28.058 Y94.666 E0.08401
G1 X26.493 Y93.101 E0.13802
G1 X25.191 Y93.449 E0.08401
G1 X23.626 Y91.884 E0.13802
G1 X23.975 Y90.583 E0.08401
G1 X22.410 Y89.018 E0.13802
G1 X21.109 Y89.367 E0.08401
G1 X20.802 Y89.060 E0.02709
G1 X20.802 Y85.998 E0.19092
G1 X21.547 Y85.798 E0.04815
G1 X23.112 Y87.363 E0.13802
G1 X22.764 Y88.665 E0.08401
G1 X24.329 Y90.230 E0.13802
G1 X25.630 Y89.881 E0.08401
G1 X27.195 Y91.446 E0.13802
G1 X26.846 Y92.747 E0.08401
G1 X28.411 Y94.312 E0.13802
G1 X29.712 Y93.963 E0.08401
G1 X31.277 Y95.528 E0.13802
G1 X30.929 Y96.830 E0.08401
G1 X32.494 Y98.395 E0.13802
G1 X33.795 Y98.046 E0.08401
G1 X35.360 Y99.611 E0.13802
G1 X35.011 Y100.912 E0.08401
G1 X36.576 Y102.477 E0.13802
G1 X37.877 Y102.128 E0.08401
G1 X39.442 Y103.693 E0.13802
G1 X39.094 Y104.995 E0.08401
G1 X40.659 Y106.560 E0.13802
G1 X41.960 Y106.211 E0.08401
G1 X43.525 Y107.776 E0.13802
G1 X43.176 Y109.077 E0.08401
G1 X44.741 Y110.642 E0.13802
G1 X46.042 Y110.293 E0.08401
G1 X47.607 Y111.858 E0.13802
G1 X47.259 Y113.160 E0.08401
G1 X48.824 Y114.725 E0.13802
G1 X50.125 Y114.376 E0.08401
G1 X51.690 Y115.941 E0.13802
G1 X51.341 Y117.242 E0.08401
G1 X52.906 Y118.807 E0.13802
G1 X54.207 Y118.458 E0.08401
G1 X54.947 Y119.198 E0.06526
G1 X55.654 Y119.198 F12000.000
G1 X54.561 Y118.105 F1500.000 E0.09644
G1 X54.910 Y116.804 E0.08401
G1 X53.345 Y115.239 E0.13802
G1 X52.043 Y115.587 E0.08401
G1 X50.478 Y114.022 E0.13802
G1 X50.827 Y112.721 E0.08401
G1 X49.262 Y111.156 E0.13802
G1 X47.961 Y111.505 E0.08401
G1 X46.396 Y109.940 E0.13802
G1 X46.745 Y108.639 E0.08401
G1 X45.180 Y107.074 E0.13802
G1 X43.878 Y107.422 E0.08401
G1 X42.313 Y105.857 E0.13802
G1 X42.662 Y104.556 E0.08401
G1 X41.097 Y102.991 E0.13802
G1 X39.796 Y103.340 E0.08401
G1 X38.231 Y101.775 E0.13802
G1 X38.580 Y100.474 E0.08401
G1 X37.015 Y98.909 E0.13802
G1 X35.713 Y99.257 E0.08401
G1 X34.148 Y97.692 E0.13802
G1 X34.497 Y96.391 E0.08401
G1 X32.932 Y94.826 E0.13802
G1 X31.631 Y95.175 E0.08401
G1 X30.066 Y93.610 E0.13802
G1 X30.415 Y92.309 E0.08401
G1 X28.850 Y90.744 E0.13802
G1 X27.548 Y91.092 E0.08401
G1 X25.984 Y89.527 E0.13802
G1 X26.332 Y88.226 E0.08401
G1 X24.767 Y86.661 E0.13802
G1 X23.466 Y87.010 E0.08401
G1 X21.901 Y85.445 E0.13802
G1 X22.250 Y84.144 E0.08401
G1 X20.802 Y82.696 E0.12770
G1 X20.802 Y80.339 E0.14699
G1 X21.387 Y80.924 E0.05161
G1 X21.038 Y82.225 E0.08401
G1 X22.603 Y83.790 E0.13802
G1 X23.904 Y83.441 E0.08401
G1 X25.469 Y85.006 E0.13802
G1 X25.121 Y86.308 E0.08401
G1 X26.686 Y87.873 E0.13802
G1 X27.987 Y87.524 E0.08401
G1 X29.552 Y89.089 E0.13802
G1 X29.203 Y90.390 E0.08401
G1 X30.768 Y91.955 E0.13802
G1 X32.069 Y91.606 E0.08401
G1 X33.634 Y93.171 E0.13802
G1 X33.286 Y94.473 E0.08401
G1 X34.851 Y96.038 E0.13802
G1 X36.152 Y95.689 E0.08401
G1 X37.717 Y97.254 E0.13802
G1 X37.368 Y98.555 E0.08401
G1 X38.933 Y100.120 E0.13802
G1 X40.234 Y99.771 E0.08401
G1 X41.799 Y101.336 E0.13802
G1 X41.451 Y102.638 E0.08401
G1 X43.016 Y104.203 E0.13802
G1 X44.317 Y103.854 E0.08401
G1 X45.882 Y105.419 E0.13802
G1 X45.533 Y106.720 E0.08401
G1 X47.098 Y108.285 E0.13802
G1 X48.399 Y107.936 E0.08401
G1 X49.964 Y109.501 E0.13802
G1 X49.616 Y110.803 E0.08401
G1 X51.181 Y112.367 E0.13802
G1 X52.482 Y112.019 E0.08401
G1 X54.047 Y113.584 E0.13802
G1 X53.698 Y114.885 E0.08401
G1 X55.263 Y116.450 E0.13802
G1 X56.564 Y116.101 E0.08401
G1 X58.129 Y117.666 E0.13802
G1 X57.781 Y118.968 E0.08401
G1 X58.011 Y119.198 E0.02035
G1 F18000.000 E-3.10000
G1 X61.170 Y119.198 F12000.000
G1 F18000.000 E3.10000
G1 X61.349 Y118.529 F1500.000 E0.04321
G1 X59.784 Y116.964 E0.13802
G1 X58.483 Y117.313 E0.08401
G1 X56.918 Y115.748 E0.13802
G1 X57.267 Y114.447 E0.08401
G1 X55.702 Y112.882 E0.13802
G1 X54.400 Y113.230 E0.08401
G1 X52.835 Y111.665 E0.13802
G1 X53.184 Y110.364 E0.08401
G1 X51.619 Y108.799 E0.13802
G1 X50.318 Y109.148 E0.08401
G1 X48.753 Y107.583 E0.13802
G1 X49.102 Y106.282 E0.08401
G1 X47.537 Y104.717 E0.13802
G1 X46.235 Y105.065 E0.08401
G1 X44.670 Y103.500 E0.13802
G1 X45.019 Y102.199 E0.08401
G1 X43.454 Y100.634 E0.13802
G1 X42.153 Y100.983 E0.08401
G1 X40.588 Y99.418 E0.13802
G1 X40.937 Y98.117 E0.08401
G1 X39.372 Y96.552 E0.13802
G1 X38.070 Y96.900 E0.08401
G1 X36.506 Y95.335 E0.13802
G1 X36.854 Y94.034 E0.08401
G1 X35.289 Y92.469 E0.13802
G1 X33.988 Y92.818 E0.08401
G1 X32.423 Y91.253 E0.13802
G1 X32.772 Y89.952 E0.08401
G1 X31.207 Y88.387 E0.13802
G1 X29.905 Y88.735 E0.08401
G1 X28.341 Y87.170 E0.13802
G1 X28.689 Y85.869 E0.08401
G1 X27.124 Y84.304 E0.13802
G1 X25.823 Y84.653 E0.08401
G1 X24.258 Y83.088 E0.13802
G1 X24.607 Y81.787 E0.08401
G1 X23.042 Y80.222 E0.13802
G1 X21.741 Y80.570 E0.08401
G1 X20.802 Y79.632 E0.08279
G1 X20.802 Y77.275 E0.14699
G1 X20.878 Y77.351 E0.00671
G1 X22.179 Y77.002 E0.08401
G1 X23.744 Y78.567 E0.13802
G1 X23.395 Y79.868 E0.08401
G1 X24.960 Y81.433 E0.13802
G1 X26.262 Y81.084 E0.08401
G1 X27.826 Y82.649 E0.13802
G1 X27.478 Y83.951 E0.08401
G1 X29.043 Y85.516 E0.13802
G1 X30.344 Y85.167 E0.08401
G1 X31.909 Y86.732 E0.13802
G1 X31.560 Y88.033 E0.08401
G1 X33.125 Y89.598 E0.13802
G1 X34.426 Y89.249 E0.08401
G1 X35.991 Y90.814 E0.13802
G1 X35.643 Y92.116 E0.08401
G1 X37.208 Y93.681 E0.13802
G1 X38.509 Y93.332 E0.08401
G1 X40.074 Y94.897 E0.13802
G1 X39.725 Y96.198 E0.08401
G1 X41.290 Y97.763 E0.13802
G1 X42.591 Y97.414 E0.08401
G1 X44.156 Y98.979 E0.13802
G1 X43.808 Y100.281 E0.08401
G1 X45.373 Y101.846 E0.13802
G1 X46.674 Y101.497 E0.08401
G1 X48.239 Y103.062 E0.13802
G1 X47.890 Y104.363 E0.08401
G1 X49.455 Y105.928 E0.13802
G1 X50.756 Y105.579 E0.08401
G1 X52.321 Y107.144 E0.13802
G1 X51.973 Y108.446 E0.08401
G1 X53.538 Y110.010 E0.13802
G1 X54.839 Y109.662 E0.08401
G1 X56.404 Y111.227 E0.13802
G1 X56.055 Y112.528 E0.08401
G1 X57.620 Y114.093 E0.13802
G1 X58.921 Y113.744 E0.08401
G1 X60.486 Y115.309 E0.13802
G1 X60.138 Y116.610 E0.08401
G1 X61.703 Y118.175 E0.13802
G1 X63.004 Y117.827 E0.08401
G1 X64.375 Y119.198 E0.12096
G1 F18000.000 E-3.10000
G1 X66.732 Y119.198 F12000.000
G1 F18000.000 E3.10000
G1 X66.224 Y118.689 F1500.000 E0.04487
G1 X64.922 Y119.038 E0.08401
G1 X63.357 Y117.473 E0.13802
G1 X63.706 Y116.172 E0.08401
