; generated by Slic3r 0.9.9 on 2013-12-15 at 20:52:16

; layer_height = 0.3
; perimeters = 1
; top_solid_layers = 0
; bottom_solid_layers = 0
; fill_density = 0.3
; perimeter_speed = 26
; infill_speed = 50
; travel_speed = 200
; nozzle_diameter = 0.5
; filament_diameter = 1.75
; extrusion_multiplier = 1
; perimeters extrusion width = 0.70mm
; infill extrusion width = 0.50mm
; solid infill extrusion width = 0.70mm
; top infill extrusion width = 0.70mm
; support material extrusion width = 0.70mm

G21 ; set units to millimeters
M107
M92 E972
M140 S60 ; set bed tempearture
M104 S195 ; set temperature
M190 S60 ; wait for bed temperature to be reached
M109 S195 ; wait for temperature to be reached
G28 ; home all axes
G90 ; use absolute coordinates
M83 ; use relative distances for extrusion
G1 F18000.000 E-3.10000
G1 Z0.300 F12000.000
G1 X17.210 Y17.630
G1 F18000.000 E3.10000
G1 X17.630 Y17.210 F780.000 E0.04849
G1 X18.120 Y16.870 E0.04869
G1 X18.470 Y16.680 E0.03251
G1 X18.830 Y16.540 E0.03153
G1 X19.210 Y16.430 E0.03229
G1 X19.410 Y16.390 E0.01665
G1 X19.800 Y16.350 E0.03200
G1 X120.200 Y16.350 E8.19592
G1 X120.590 Y16.390 E0.03200
G1 X120.790 Y16.430 E0.01665
G1 X121.170 Y16.540 E0.03229
G1 X121.530 Y16.680 E0.03153
G1 X121.880 Y16.870 E0.03251
G1 X122.370 Y17.210 E0.04869
G1 X122.790 Y17.630 E0.04849
G1 X123.130 Y18.120 E0.04869
G1 X123.320 Y18.470 E0.03251
G1 X123.460 Y18.830 E0.03153
G1 X123.570 Y19.210 E0.03229
G1 X123.610 Y19.410 E0.01665
G1 X123.650 Y19.800 E0.03200
G1 X123.650 Y120.200 E8.19592
G1 X123.610 Y120.590 E0.03200
G1 X123.570 Y120.790 E0.01665
G1 X123.460 Y121.170 E0.03229
G1 X123.320 Y121.530 E0.03153
G1 X123.130 Y121.880 E0.03251
G1 X122.790 Y122.370 E0.04869
G1 X122.370 Y122.790 E0.04849
G1 X121.880 Y123.130 E0.04869
G1 X121.530 Y123.320 E0.03251
G1 X121.170 Y123.460 E0.03153
G1 X120.790 Y123.570 E0.03229
G1 X120.590 Y123.610 E0.01665
G1 X120.200 Y123.650 E0.03200
G1 X19.800 Y123.650 E8.19592
G1 X19.410 Y123.610 E0.03200
G1 X19.210 Y123.570 E0.01665
G1 X18.830 Y123.460 E0.03229
G1 X18.470 Y123.320 E0.03153
G1 X18.120 Y123.130 E0.03251
G1 X17.630 Y122.790 E0.04869
G1 X17.210 Y122.370 E0.04849
G1 X16.870 Y121.880 E0.04869
G1 X16.680 Y121.530 E0.03251
G1 X16.540 Y121.170 E0.03153
G1 X16.430 Y120.790 E0.03229
G1 X16.390 Y120.590 E0.01665
G1 X16.350 Y120.200 E0.03200
G1 X16.350 Y19.800 E8.19592
G1 X16.390 Y19.410 E0.03200
G1 X16.540 Y18.830 E0.04890
G1 X16.770 Y18.290 E0.04791
G1 X17.151 Y17.709 E0.05675
G1 F18000.000 E-3.10000
G1 X20.327 Y119.673 F12000.000
G1 F18000.000 E3.10000
G1 X20.327 Y20.327 F780.000 E8.10984
G1 X119.673 Y20.327 E8.10984
G1 X119.673 Y119.673 E8.10984
G1 X20.425 Y119.673 E8.10182
G1 X20.802 Y118.333 F12000.000
G1 X73.579 Y118.333 F1500.000 E3.29131
G1 X25.245 Y70.000 E4.26272
G1 X73.579 Y21.667 E4.26272
G1 X20.802 Y21.667 E3.29131
G1 X20.802 Y23.333 F12000.000
G1 X68.579 Y23.333 F1500.000 E2.97950
G1 X21.912 Y70.000 E4.11573
G1 X68.579 Y116.667 E4.11573
G1 X20.802 Y116.667 E2.97950
G1 X20.802 Y115.000 F12000.000
G1 X63.579 Y115.000 F1500.000 E2.66769
G1 X20.802 Y72.223 E3.77268
G1 F18000.000 E-3.10000
G1 X20.802 Y75.556 F12000.000
G1 F18000.000 E3.10000
G1 X58.579 Y113.333 F1500.000 E3.33171
G1 X20.802 Y113.333 E2.35587
G1 X20.802 Y111.667 F12000.000
G1 X53.579 Y111.667 F1500.000 E2.04406
G1 X20.802 Y78.890 E2.89073
G1 F18000.000 E-3.10000
G1 X20.802 Y82.223 F12000.000
G1 F18000.000 E3.10000
G1 X48.579 Y110.000 F1500.000 E2.44976
G1 X20.802 Y110.000 E1.73224
G1 X20.802 Y108.333 F12000.000
G1 X43.579 Y108.333 F1500.000 E1.42043
G1 X20.802 Y85.556 E2.00879
G1 F18000.000 E-3.10000
G1 X20.802 Y88.890 F12000.000
G1 F18000.000 E3.10000
G1 X38.579 Y106.667 F1500.000 E1.56782
G1 X20.802 Y106.667 E1.10862
G1 X20.802 Y105.000 F12000.000
G1 X33.579 Y105.000 F1500.000 E0.79680
G1 X20.802 Y92.223 E1.12685
G1 F18000.000 E-3.10000
G1 X20.802 Y95.556 F12000.000
G1 F18000.000 E3.10000
G1 X28.579 Y103.333 F1500.000 E0.68588
G1 X20.802 Y103.333 E0.48499
G1 X20.802 Y101.667 F12000.000
G1 X23.579 Y101.667 F1500.000 E0.17317
G1 X20.802 Y98.890 E0.24491
G1 F18000.000 E-3.10000
G1 X20.802 Y67.777 F12000.000
G1 F18000.000 E3.10000
G1 X63.579 Y25.000 F1500.000 E3.77268
G1 X20.802 Y25.000 E2.66769
G1 X20.802 Y26.667 F12000.000
G1 X58.579 Y26.667 F1500.000 E2.35587
G1 X20.802 Y64.444 E3.33171
G1 F18000.000 E-3.10000
G1 X20.802 Y61.110 F12000.000
G1 F18000.000 E3.10000
G1 X53.579 Y28.333 F1500.000 E2.89073
G1 X20.802 Y28.333 E2.04406
G1 X20.802 Y30.000 F12000.000
G1 X48.579 Y30.000 F1500.000 E1.73224
G1 X20.802 Y57.777 E2.44976
G1 F18000.000 E-3.10000
G1 X20.802 Y54.444 F12000.000
G1 F18000.000 E3.10000
G1 X43.579 Y31.667 F1500.000 E2.00879
G1 X20.802 Y31.667 E1.42043
G1 X20.802 Y33.333 F12000.000
G1 X38.579 Y33.333 F1500.000 E1.10862
G1 X20.802 Y51.110 E1.56782
G1 F18000.000 E-3.10000
G1 X20.802 Y47.777 F12000.000
G1 F18000.000 E3.10000
G1 X33.579 Y35.000 F1500.000 E1.12685
G1 X20.802 Y35.000 E0.79680
G1 X20.802 Y36.667 F12000.000
G1 X28.579 Y36.667 F1500.000 E0.48499
G1 X20.802 Y44.444 E0.68588
G1 F18000.000 E-3.10000
G1 X20.802 Y41.110 F12000.000
G1 F18000.000 E3.10000
G1 X23.579 Y38.333 F1500.000 E0.24491
G1 X20.802 Y38.333 E0.17317
G1 F18000.000 E-3.10000
G1 X77.777 Y20.802 F12000.000
G1 F18000.000 E3.10000
G1 X28.579 Y70.000 F1500.000 E4.33900
G1 X77.777 Y119.198 E4.33900
G1 F18000.000 E-3.10000
G1 X81.110 Y119.198 F12000.000
G1 F18000.000 E3.10000
G1 X31.912 Y70.000 F1500.000 E4.33900
G1 X81.110 Y20.802 E4.33900
G1 F18000.000 E-3.10000
G1 X84.444 Y20.802 F12000.000
G1 F18000.000 E3.10000
G1 X35.245 Y70.000 F1500.000 E4.33900
G1 X84.444 Y119.198 E4.33900
G1 F18000.000 E-3.10000
G1 X87.777 Y119.198 F12000.000
G1 F18000.000 E3.10000
G1 X38.579 Y70.000 F1500.000 E4.33900
G1 X87.777 Y20.802 E4.33900
G1 F18000.000 E-3.10000
G1 X91.110 Y20.802 F12000.000
G1 F18000.000 E3.10000
G1 X41.912 Y70.000 F1500.000 E4.33900
G1 X91.110 Y119.198 E4.33900
G1 F18000.000 E-3.10000
G1 X94.444 Y119.198 F12000.000
G1 F18000.000 E3.10000
G1 X45.245 Y70.000 F1500.000 E4.33900
G1 X94.444 Y20.802 E4.33900
G1 F18000.000 E-3.10000
G1 X97.777 Y20.802 F12000.000
G1 F18000.000 E3.10000
G1 X48.579 Y70.000 F1500.000 E4.33900
G1 X97.777 Y119.198 E4.33900
G1 F18000.000 E-3.10000
G1 X101.110 Y119.198 F12000.000
G1 F18000.000 E3.10000
G1 X51.912 Y70.000 F1500.000 E4.33900
G1 X101.110 Y20.802 E4.33900
G1 F18000.000 E-3.10000
G1 X104.444 Y20.802 F12000.000
G1 F18000.000 E3.10000
G1 X55.245 Y70.000 F1500.000 E4.33900
G1 X104.444 Y119.198 E4.33900
G1 F18000.000 E-3.10000
G1 X107.777 Y119.198 F12000.000
G1 F18000.000 E3.10000
G1 X58.579 Y70.000 F1500.000 E4.33900
G1 X107.777 Y20.802 E4.33900
G1 F18000.000 E-3.10000
G1 X111.110 Y20.802 F12000.000
G1 F18000.000 E3.10000
G1 X61.912 Y70.000 F1500.000 E4.33900
G1 X111.110 Y119.198 E4.33900
G1 F18000.000 E-3.10000
G1 X114.444 Y119.198 F12000.000
G1 F18000.000 E3.10000
G1 X65.245 Y70.000 F1500.000 E4.33900
G1 X114.444 Y20.802 E4.33900
G1 F18000.000 E-3.10000
G1 X117.777 Y20.802 F12000.000
G1 F18000.000 E3.10000
G1 X68.579 Y70.000 F1500.000 E4.33900
G1 X117.777 Y119.198 E4.33900
G1 F18000.000 E-3.10000
G1 X119.198 Y117.286 F12000.000
G1 F18000.000 E3.10000
G1 X71.912 Y70.000 F1500.000 E4.17038
G1 X119.198 Y22.714 E4.17038
G1 F18000.000 E-3.10000
G1 X119.198 Y26.047 F12000.000
G1 F18000.000 E3.10000
G1 X75.245 Y70.000 F1500.000 E3.87640
G1 X119.198 Y113.953 E3.87640
G1 F18000.000 E-3.10000
G1 X119.198 Y110.620 F12000.000
G1 F18000.000 E3.10000
G1 X78.579 Y70.000 F1500.000 E3.58242
G1 X119.198 Y29.380 E3.58242
G1 F18000.000 E-3.10000
G1 X119.198 Y32.714 F12000.000
G1 F18000.000 E3.10000
G1 X81.912 Y70.000 F1500.000 E3.28843
G1 X119.198 Y107.286 E3.28843
G1 F18000.000 E-3.10000
G1 X119.198 Y103.953 F12000.000
G1 F18000.000 E3.10000
G1 X85.245 Y70.000 F1500.000 E2.99445
G1 X119.198 Y36.047 E2.99445
G1 F18000.000 E-3.10000
G1 X119.198 Y39.380 F12000.000
G1 F18000.000 E3.10000
G1 X88.579 Y70.000 F1500.000 E2.70047
G1 X119.198 Y100.620 E2.70047
G1 F18000.000 E-3.10000
G1 X119.198 Y97.286 F12000.000
G1 F18000.000 E3.10000
G1 X91.912 Y70.000 F1500.000 E2.40649
G1 X119.198 Y42.714 E2.40649
G1 F18000.000 E-3.10000
G1 X119.198 Y46.047 F12000.000
G1 F18000.000 E3.10000
G1 X95.245 Y70.000 F1500.000 E2.11251
G1 X119.198 Y93.953 E2.11251
G1 F18000.000 E-3.10000
G1 X119.198 Y90.620 F12000.000
G1 F18000.000 E3.10000
G1 X98.579 Y70.000 F1500.000 E1.81853
G1 X119.198 Y49.380 E1.81853
G1 F18000.000 E-3.10000
G1 X119.198 Y52.714 F12000.000
G1 F18000.000 E3.10000
G1 X101.912 Y70.000 F1500.000 E1.52455
G1 X119.198 Y87.286 E1.52455
G1 F18000.000 E-3.10000
G1 X119.198 Y83.953 F12000.000
G1 F18000.000 E3.10000
G1 X105.245 Y70.000 F1500.000 E1.23057
G1 X119.198 Y56.047 E1.23057
G1 F18000.000 E-3.10000
G1 X119.198 Y59.380 F12000.000
G1 F18000.000 E3.10000
G1 X108.579 Y70.000 F1500.000 E0.93659
G1 X119.198 Y80.620 E0.93659
G1 F18000.000 E-3.10000
G1 X119.198 Y77.286 F12000.000
G1 F18000.000 E3.10000
G1 X111.912 Y70.000 F1500.000 E0.64261
G1 X119.198 Y62.714 E0.64261
G1 F18000.000 E-3.10000
G1 X119.198 Y66.047 F12000.000
G1 F18000.000 E3.10000
G1 X115.245 Y70.000 F1500.000 E0.34863
G1 X119.198 Y73.953 E0.34863
G1 F18000.000 E-3.10000
G1 X119.198 Y70.620 F12000.000
G1 F18000.000 E3.10000
G1 X118.579 Y70.000 F1500.000 E0.05465
G1 X119.198 Y69.380 E0.05465
G1 F18000.000 E-3.10000
G1 Z0.600 F12000.000
G1 X119.673 Y119.673
G1 F18000.000 E3.10000
G1 X20.327 Y119.673 F1560.000 E8.10984
G1 X20.327 Y20.327 E8.10984
G1 X119.673 Y20.327 E8.10984
G1 X119.673 Y119.575 E8.10182
G1 X118.333 Y119.198 F12000.000
G1 X118.333 Y66.421 F3000.000 E3.29131
G1 X70.000 Y114.755 E4.26272
G1 X21.667 Y66.421 E4.26272
G1 X21.667 Y119.198 E3.29131
G1 X23.333 Y119.198 F12000.000
G1 X23.333 Y71.421 F3000.000 E2.97950
G1 X70.000 Y118.088 E4.11573
G1 X116.667 Y71.421 E4.11573
G1 X116.667 Y119.198 E2.97950
G1 X115.000 Y119.198 F12000.000
G1 X115.000 Y76.421 F3000.000 E2.66769
G1 X72.223 Y119.198 E3.77268
G1 F18000.000 E-3.10000
G1 X75.556 Y119.198 F12000.000
G1 F18000.000 E3.10000
G1 X113.333 Y81.421 F3000.000 E3.33171
G1 X113.333 Y119.198 E2.35587
G1 X111.667 Y119.198 F12000.000
G1 X111.667 Y86.421 F3000.000 E2.04406
G1 X78.890 Y119.198 E2.89073
G1 F18000.000 E-3.10000
G1 X82.223 Y119.198 F12000.000
G1 F18000.000 E3.10000
G1 X110.000 Y91.421 F3000.000 E2.44976
G1 X110.000 Y119.198 E1.73224
G1 X108.333 Y119.198 F12000.000
G1 X108.333 Y96.421 F3000.000 E1.42043
G1 X85.556 Y119.198 E2.00879
G1 F18000.000 E-3.10000
G1 X88.890 Y119.198 F12000.000
G1 F18000.000 E3.10000
G1 X106.667 Y101.421 F3000.000 E1.56782
G1 X106.667 Y119.198 E1.10862
G1 X105.000 Y119.198 F12000.000
G1 X105.000 Y106.421 F3000.000 E0.79680
G1 X92.223 Y119.198 E1.12685
G1 F18000.000 E-3.10000
G1 X95.556 Y119.198 F12000.000
G1 F18000.000 E3.10000
G1 X103.333 Y111.421 F3000.000 E0.68588
G1 X103.333 Y119.198 E0.48499
G1 X101.667 Y119.198 F12000.000
G1 X101.667 Y116.421 F3000.000 E0.17317
G1 X98.890 Y119.198 E0.24491
G1 F18000.000 E-3.10000
G1 X67.777 Y119.198 F12000.000
G1 F18000.000 E3.10000
G1 X25.000 Y76.421 F3000.000 E3.77268
G1 X25.000 Y119.198 E2.66769
G1 X26.667 Y119.198 F12000.000
G1 X26.667 Y81.421 F3000.000 E2.35587
G1 X64.444 Y119.198 E3.33171
G1 F18000.000 E-3.10000
G1 X61.110 Y119.198 F12000.000
G1 F18000.000 E3.10000
G1 X28.333 Y86.421 F3000.000 E2.89073
G1 X28.333 Y119.198 E2.04406
G1 X30.000 Y119.198 F12000.000
G1 X30.000 Y91.421 F3000.000 E1.73224
G1 X57.777 Y119.198 E2.44976
G1 F18000.000 E-3.10000
G1 X54.444 Y119.198 F12000.000
G1 F18000.000 E3.10000
G1 X31.667 Y96.421 F3000.000 E2.00879
G1 X31.667 Y119.198 E1.42043
G1 X33.333 Y119.198 F12000.000
G1 X33.333 Y101.421 F3000.000 E1.10862
G1 X51.110 Y119.198 E1.56782
G1 F18000.000 E-3.10000
G1 X47.777 Y119.198 F12000.000
G1 F18000.000 E3.10000
G1 X35.000 Y106.421 F3000.000 E1.12685
G1 X35.000 Y119.198 E0.79680
G1 X36.667 Y119.198 F12000.000
G1 X36.667 Y111.421 F3000.000 E0.48499
G1 X44.444 Y119.198 E0.68588
G1 F18000.000 E-3.10000
G1 X41.110 Y119.198 F12000.000
G1 F18000.000 E3.10000
G1 X38.333 Y116.421 F3000.000 E0.24491
G1 X38.333 Y119.198 E0.17317
G1 F18000.000 E-3.10000
G1 X20.802 Y62.223 F12000.000
G1 F18000.000 E3.10000
G1 X70.000 Y111.421 F3000.000 E4.33900
G1 X119.198 Y62.223 E4.33900
G1 F18000.000 E-3.10000
G1 X119.198 Y58.890 F12000.000
G1 F18000.000 E3.10000
G1 X70.000 Y108.088 F3000.000 E4.33900
G1 X20.802 Y58.890 E4.33900
G1 F18000.000 E-3.10000
G1 X20.802 Y55.556 F12000.000
G1 F18000.000 E3.10000
G1 X70.000 Y104.755 F3000.000 E4.33900
G1 X119.198 Y55.556 E4.33900
G1 F18000.000 E-3.10000
G1 X119.198 Y52.223 F12000.000
G1 F18000.000 E3.10000
G1 X70.000 Y101.421 F3000.000 E4.33900
G1 X20.802 Y52.223 E4.33900
G1 F18000.000 E-3.10000
G1 X20.802 Y48.890 F12000.000
G1 F18000.000 E3.10000
G1 X70.000 Y98.088 F3000.000 E4.33900
G1 X119.198 Y48.890 E4.33900
G1 F18000.000 E-3.10000
G1 X119.198 Y45.556 F12000.000
G1 F18000.000 E3.10000
G1 X70.000 Y94.755 F3000.000 E4.33900
G1 X20.802 Y45.556 E4.33900
G1 F18000.000 E-3.10000
G1 X20.802 Y42.223 F12000.000
G1 F18000.000 E3.10000
G1 X70.000 Y91.421 F3000.000 E4.33900
G1 X119.198 Y42.223 E4.33900
G1 F18000.000 E-3.10000
G1 X119.198 Y38.890 F12000.000
G1 F18000.000 E3.10000
G1 X70.000 Y88.088 F3000.000 E4.33900
G1 X20.802 Y38.890 E4.33900
G1 F18000.000 E-3.10000
G1 X20.802 Y35.556 F12000.000
G1 F18000.000 E3.10000
G1 X70.000 Y84.755 F3000.000 E4.33900
G1 X119.198 Y35.556 E4.33900
G1 F18000.000 E-3.10000
G1 X119.198 Y32.223 F12000.000
G1 F18000.000 E3.10000
G1 X70.000 Y81.421 F3000.000 E4.33900
G1 X20.802 Y32.223 E4.33900
G1 F18000.000 E-3.10000
G1 X20.802 Y28.890 F12000.000
G1 F18000.000 E3.10000
G1 X70.000 Y78.088 F3000.000 E4.33900
G1 X119.198 Y28.890 E4.33900
G1 F18000.000 E-3.10000
G1 X119.198 Y25.556 F12000.000
G1 F18000.000 E3.10000
G1 X70.000 Y74.755 F3000.000 E4.33900
G1 X20.802 Y25.556 E4.33900
G1 F18000.000 E-3.10000
G1 X20.802 Y22.223 F12000.000
G1 F18000.000 E3.10000
G1 X70.000 Y71.421 F3000.000 E4.33900
G1 X119.198 Y22.223 E4.33900
G1 F18000.000 E-3.10000
G1 X117.286 Y20.802 F12000.000
G1 F18000.000 E3.10000
G1 X70.000 Y68.088 F3000.000 E4.17038
G1 X22.714 Y20.802 E4.17038
G1 F18000.000 E-3.10000
G1 X26.047 Y20.802 F12000.000
G1 F18000.000 E3.10000
G1 X70.000 Y64.755 F3000.000 E3.87640
G1 X113.953 Y20.802 E3.87640
G1 F18000.000 E-3.10000
G1 X110.620 Y20.802 F12000.000
G1 F18000.000 E3.10000
G1 X70.000 Y61.421 F3000.000 E3.58242
G1 X29.380 Y20.802 E3.58242
G1 F18000.000 E-3.10000
G1 X32.714 Y20.802 F12000.000
G1 F18000.000 E3.10000
G1 X70.000 Y58.088 F3000.000 E3.28843
G1 X107.286 Y20.802 E3.28843
G1 F18000.000 E-3.10000
G1 X103.953 Y20.802 F12000.000
G1 F18000.000 E3.10000
G1 X70.000 Y54.755 F3000.000 E2.99445
G1 X36.047 Y20.802 E2.99445
G1 F18000.000 E-3.10000
G1 X39.380 Y20.802 F12000.000
G1 F18000.000 E3.10000
G1 X70.000 Y51.421 F3000.000 E2.70047
G1 X100.620 Y20.802 E2.70047
G1 F18000.000 E-3.10000
G1 X97.286 Y20.802 F12000.000
G1 F18000.000 E3.10000
G1 X70.000 Y48.088 F3000.000 E2.40649
G1 X42.714 Y20.802 E2.40649
G1 F18000.000 E-3.10000
G1 X46.047 Y20.802 F12000.000
G1 F18000.000 E3.10000
G1 X70.000 Y44.755 F3000.000 E2.11251
G1 X93.953 Y20.802 E2.11251
G1 F18000.000 E-3.10000
G1 X90.620 Y20.802 F12000.000
G1 F18000.000 E3.10000
G1 X70.000 Y41.421 F3000.000 E1.81853
G1 X49.380 Y20.802 E1.81853
G1 F18000.000 E-3.10000
G1 X52.714 Y20.802 F12000.000
G1 F18000.000 E3.10000
G1 X70.000 Y38.088 F3000.000 E1.52455
G1 X87.286 Y20.802 E1.52455
G1 F18000.000 E-3.10000
G1 X83.953 Y20.802 F12000.000
G1 F18000.000 E3.10000
G1 X70.000 Y34.755 F3000.000 E1.23057
G1 X56.047 Y20.802 E1.23057
G1 F18000.000 E-3.10000
G1 X59.380 Y20.802 F12000.000
G1 F18000.000 E3.10000
G1 X70.000 Y31.421 F3000.000 E0.93659
G1 X80.620 Y20.802 E0.93659
G1 F18000.000 E-3.10000
G1 X77.286 Y20.802 F12000.000
G1 F18000.000 E3.10000
G1 X70.000 Y28.088 F3000.000 E0.64261
G1 X62.714 Y20.802 E0.64261
G1 F18000.000 E-3.10000
G1 X66.047 Y20.802 F12000.000
G1 F18000.000 E3.10000
G1 X70.000 Y24.755 F3000.000 E0.34863
G1 X73.953 Y20.802 E0.34863
G1 F18000.000 E-3.10000
G1 X70.620 Y20.802 F12000.000
G1 F18000.000 E3.10000
G1 X70.000 Y21.421 F3000.000 E0.05465
G1 X69.380 Y20.802 E0.05465
